src/helpers/heroicons/outline/video-camera-slash.svg

<svg width="24" height="24" viewBox="0 0 24 24" fill="none" xmlns="http://www.w3.org/2000/svg">
<path d="M15.75 10.5L20.4697 5.78033C20.9421 5.30786 21.75 5.64248 21.75 6.31066V17.6893C21.75 18.3575 20.9421 18.6921 20.4697 18.2197L15.75 13.5M12 18.75H4.5C3.25736 18.75 2.25 17.7426 2.25 16.5V9M15.091 18.091L16.5 19.5M15.091 18.091C15.4982 17.6838 15.75 17.1213 15.75 16.5V7.5C15.75 6.25736 14.7426 5.25 13.5 5.25H4.5C3.87868 5.25 3.31618 5.50184 2.90901 5.90901M15.091 18.091L2.90901 5.90901M1.5 4.5L2.90901 5.90901"  stroke-width="1.5" stroke-linecap="round" stroke-linejoin="round"/>
</svg>

<svg xmlns="http://www.w3.org/2000/svg" fill="none" viewBox="0 0 24 24" stroke-width="1.5" stroke="currentColor" aria-hidden="true" data-slot="icon">
  <path stroke-linecap="round" stroke-linejoin="round" d="m15.75 10.5 4.72-4.72a.75.75 0 0 1 1.28.53v11.38a.75.75 0 0 1-1.28.53l-4.72-4.72M12 18.75H4.5a2.25 2.25 0 0 1-2.25-2.25V9m12.841 9.091L16.5 19.5m-1.409-1.409c.407-.407.659-.97.659-1.591v-9a2.25 2.25 0 0 0-2.25-2.25h-9c-.621 0-1.184.252-1.591.659m12.182 12.182L2.909 5.909M1.5 4.5l1.409 1.409"/>
</svg>
